react/assets/icons/settings.svg

<svg role="img" xmlns="http://www.w3.org/2000/svg" width="48px" height="48px" viewBox="0 0 24 24" aria-labelledby="settingsIconTitle" stroke-linecap="square" stroke-linejoin="miter" fill="none"> <title id="settingsIconTitle">Settings</title> <path d="M5.03506429,12.7050339 C5.01187484,12.4731696 5,12.2379716 5,12 C5,11.7620284 5.01187484,11.5268304 5.03506429,11.2949661 L3.20577137,9.23205081 L5.20577137,5.76794919 L7.9069713,6.32070904 C8.28729123,6.0461342 8.69629298,5.80882212 9.12862533,5.61412402 L10,3 L14,3 L14.8713747,5.61412402 C15.303707,5.80882212 15.7127088,6.0461342 16.0930287,6.32070904 L18.7942286,5.76794919 L20.7942286,9.23205081 L18.9649357,11.2949661 C18.9881252,11.5268304 19,11.7620284 19,12 C19,12.2379716 18.9881252,12.4731696 18.9649357,12.7050339 L20.7942286,14.7679492 L18.7942286,18.2320508 L16.0930287,17.679291 C15.7127088,17.9538658 15.303707,18.1911779 14.8713747,18.385876 L14,21 L10,21 L9.12862533,18.385876 C8.69629298,18.1911779 8.28729123,17.9538658 7.9069713,17.679291 L5.20577137,18.2320508 L3.20577137,14.7679492 L5.03506429,12.7050339 Z"/> <circle cx="12" cy="12" r="1"/> </svg>

<svg xmlns="http://www.w3.org/2000/svg" width="48" height="48" viewBox="0 0 24 24" aria-labelledby="settingsIconTitle" stroke-linecap="square" fill="none"><path d="M5.035 12.705a7.083 7.083 0 010-1.41l-1.83-2.063 2-3.464 2.702.553c.38-.275.79-.512 1.222-.707L10 3h4l.871 2.614c.433.195.842.432 1.222.707l2.701-.553 2 3.464-1.83 2.063a7.083 7.083 0 010 1.41l1.83 2.063-2 3.464-2.701-.553c-.38.275-.79.512-1.222.707L14 21h-4l-.871-2.614a6.993 6.993 0 01-1.222-.707l-2.701.553-2-3.464 1.83-2.063z"/><circle cx="12" cy="12" r="1"/></svg>
